X: 51
T: Debka Bedouit
C: Arabic
D: Israeli Folk Dance Party
O: Israel
M: 4/4
L: 1/8
K: C
Q:1/4=120
%%MIDI program 68 Oboe
GGFF EED2   |FFEE DDC2         |\
CB,A,B, C2C2|CB,A,B, C2C2      |
C2CC C2CC   |C2CC C/B,/A,/C/ C2|\
C2CC C2CC   |C2CC C/B,/A,/C/ C2|



